X: 14193
T: Frost On The Bow
R: hornpipe
M: 4/4
K: Gdorian
G3 A BA GB|AF FE F2 Bc|d3c Bc de|fe fg fd cA|
(3Bcd GB (3ABc FA|BG GF GA Bc|dg gf (3def cA|BG GF DF GA|
B3 A GB AG|AF FE F2 Bc|d3c Bc de|fe fg fd cA|
(3Bcd GB (3ABc FA|BG GF GA Bc|dg gf (3def cA|BG GF G4||
g3 a bg df|g3 b af df|g3 a bg af|gd fd cB AF|
(3Bcd GB (3ABc FA|BG GF GA Bc|dg gf (3def cA|BG GF G4|
g3 a bg df|g3 b af df|g3 a bg af|gd fd cB AF|
Gg gf gd BG|Ff fe fc AF|(3Bcd GB (3ABc FA|BG GF G4||

